src/assets/PolygonIcons2.svg

<svg width="117" height="122" viewBox="0 0 117 122" fill="none" xmlns="http://www.w3.org/2000/svg">
<g filter="url(#filter0_bd_1735_143)">
<path d="M53.5 90.1132C56.594 91.8996 60.406 91.8996 63.5 90.1132L81.2128 79.8868C84.3068 78.1004 86.2128 74.7992 86.2128 71.2265V50.7735C86.2128 47.2008 84.3068 43.8996 81.2128 42.1133L63.5 31.8867C60.406 30.1004 56.594 30.1004 53.5 31.8867L35.7872 42.1133C32.6932 43.8996 30.7872 47.2008 30.7872 50.7735V71.2265C30.7872 74.7992 32.6932 78.1004 35.7872 79.8868L53.5 90.1132Z" fill="url(#paint0_radial_1735_143)"/>
<path d="M53.75 89.6802C56.6893 91.3772 60.3107 91.3772 63.25 89.6802L80.9628 79.4537C83.9021 77.7567 85.7128 74.6205 85.7128 71.2265V50.7735C85.7128 47.3795 83.9021 44.2433 80.9628 42.5463L63.25 32.3198C60.3107 30.6227 56.6893 30.6227 53.75 32.3198L36.0372 42.5463C33.0979 44.2433 31.2872 47.3795 31.2872 50.7735V71.2265C31.2872 74.6205 33.0979 77.7567 36.0372 79.4537L53.75 89.6802Z" stroke="url(#paint1_linear_1735_143)" style="mix-blend-mode:overlay"/>
</g>
<path d="M50.2812 68.4063C47.8203 68.4063 46.6016 67.1875 46.6016 64.7734L46.6016 52.9141C46.6016 50.5 47.8203 49.2813 50.2812 49.2813L62.0469 49.2813C64.4844 49.2813 65.7148 50.5 65.7148 52.9141L65.7148 54.707L67.7305 54.707C70.168 54.707 71.3984 55.9258 71.3984 58.3398L71.3984 70.1992C71.3984 72.6133 70.168 73.832 67.7305 73.832L55.9648 73.832C53.5039 73.832 52.2852 72.6133 52.2852 70.1992L52.2852 68.4063L50.2812 68.4063ZM50.3047 66.5195L52.2852 66.5195L52.2852 58.3398C52.2852 55.9141 53.5039 54.707 55.9648 54.707L63.8281 54.707L63.8281 53.0195C63.8281 51.8008 63.1719 51.168 62.0117 51.168L50.3047 51.168C49.1328 51.168 48.4883 51.8008 48.4883 53.0195L48.4883 64.668C48.4883 65.8867 49.1328 66.5195 50.3047 66.5195ZM62.457 69.1328C62.668 69.1328 62.832 68.9688 62.8906 68.7461C63.5586 65.1953 63.8867 64.5273 67.5781 64.0352C67.8125 64.0117 67.9766 63.8242 67.9766 63.5898C67.9766 63.3672 67.8125 63.1914 67.5781 63.1563C63.8984 62.6523 63.4062 61.9492 62.8906 58.4688C62.8437 58.2344 62.668 58.0586 62.457 58.0586C62.2227 58.0586 62.0586 58.2227 61.9883 58.457C61.332 62.0195 61.0039 62.6523 57.3242 63.1563C57.0781 63.1914 56.9141 63.3672 56.9141 63.5898C56.9141 63.8242 57.0781 64 57.3242 64.0352C61.0156 64.4102 61.4844 65.1953 61.9883 68.7344C62.0352 68.9688 62.1992 69.1328 62.457 69.1328ZM57.6875 71.1016C57.8633 71.1016 57.9922 70.9961 58.0391 70.832C58.3555 69.0625 58.2383 68.9922 60.1602 68.6992C60.3242 68.6641 60.4531 68.5352 60.4531 68.3711C60.4531 68.1953 60.3242 68.0664 60.1602 68.043C58.25 67.7148 58.3555 67.6328 58.0391 65.9219C57.9922 65.7461 57.875 65.6172 57.6875 65.6172C57.5234 65.6172 57.4062 65.7344 57.3477 65.9219C57.0078 67.6328 57.1602 67.7148 55.2383 68.043C55.0625 68.0664 54.9453 68.1953 54.9453 68.3711C54.9453 68.5586 55.0625 68.6641 55.2617 68.6992C57.1602 68.9922 57.0078 69.0625 57.3477 70.7969C57.4062 70.9844 57.5117 71.1016 57.6875 71.1016Z" fill="url(#paint2_linear_1735_143)" style="mix-blend-mode:overlay"/>
<defs>
<filter id="filter0_bd_1735_143" x="0.787109" y="0.546997" width="115.426" height="120.906" filterUnits="userSpaceOnUse" color-interpolation-filters="sRGB">
<feFlood flood-opacity="0" result="BackgroundImageFix"/>
<feGaussianBlur in="BackgroundImageFix" stdDeviation="2"/>
<feComposite in2="SourceAlpha" operator="in" result="effect1_backgroundBlur_1735_143"/>
<feColorMatrix in="SourceAlpha" type="matrix" values="0 0 0 0 0 0 0 0 0 0 0 0 0 0 0 0 0 0 127 0" result="hardAlpha"/>
<feOffset/>
<feGaussianBlur stdDeviation="15"/>
<feComposite in2="hardAlpha" operator="out"/>
<feColorMatrix type="matrix" values="0 0 0 0 0.462745 0 0 0 0 0.239216 0 0 0 0 0.690196 0 0 0 1 0"/>
<feBlend mode="normal" in2="effect1_backgroundBlur_1735_143" result="effect2_dropShadow_1735_143"/>
<feBlend mode="normal" in="SourceGraphic" in2="effect2_dropShadow_1735_143" result="shape"/>
</filter>
<radialGradient id="paint0_radial_1735_143" cx="0" cy="0" r="1" gradientUnits="userSpaceOnUse" gradientTransform="translate(75.5777 50.3333) rotate(92.637) scale(162.172 72.7296)">
<stop stop-color="#602EA6"/>
<stop offset="1" stop-color="#C977D6"/>
</radialGradient>
<linearGradient id="paint1_linear_1735_143" x1="50.7" y1="48.6086" x2="79.2955" y2="89.1105" gradientUnits="userSpaceOnUse">
<stop stop-color="white"/>
<stop offset="1" stop-color="white" stop-opacity="0.5"/>
</linearGradient>
<linearGradient id="paint2_linear_1735_143" x1="59" y1="47" x2="59" y2="76" gradientUnits="userSpaceOnUse">
<stop stop-color="white" stop-opacity="0.8"/>
<stop offset="1" stop-color="white" stop-opacity="0.3"/>
</linearGradient>
</defs>
</svg>

<svg xmlns="http://www.w3.org/2000/svg" width="117" height="122" fill="none"><g filter="url(#a)"><path fill="url(#b)" d="M53.5 90.113a10 10 0 0 0 10 0l17.713-10.226a10 10 0 0 0 5-8.66V50.773a10 10 0 0 0-5-8.66L63.5 31.887a10 10 0 0 0-10 0L35.787 42.113a10 10 0 0 0-5 8.66v20.453a10 10 0 0 0 5 8.66L53.5 90.114Z"/><path stroke="url(#c)" d="M53.75 89.68a9.5 9.5 0 0 0 9.5 0l17.713-10.226a9.5 9.5 0 0 0 4.75-8.227V50.773a9.5 9.5 0 0 0-4.75-8.227L63.25 32.32a9.5 9.5 0 0 0-9.5 0L36.037 42.546a9.5 9.5 0 0 0-4.75 8.227v20.453a9.5 9.5 0 0 0 4.75 8.228L53.75 89.68Z" style="mix-blend-mode:overlay"/></g><path fill="url(#d)" d="M50.281 68.406c-2.46 0-3.68-1.219-3.68-3.633V52.914c0-2.414 1.22-3.633 3.68-3.633h11.766c2.437 0 3.668 1.219 3.668 3.633v1.793h2.016c2.437 0 3.667 1.219 3.667 3.633V70.2c0 2.413-1.23 3.632-3.667 3.632H55.965c-2.461 0-3.68-1.219-3.68-3.633v-1.793h-2.004Zm.024-1.887h1.98v-8.18c0-2.425 1.219-3.632 3.68-3.632h7.863v-1.688c0-1.218-.656-1.851-1.816-1.851H50.305c-1.172 0-1.817.633-1.817 1.852v11.648c0 1.219.645 1.851 1.817 1.851Zm12.152 2.614c.211 0 .375-.164.434-.387.668-3.55.996-4.219 4.687-4.71a.437.437 0 0 0 .399-.446c0-.223-.165-.399-.399-.434-3.68-.504-4.172-1.207-4.687-4.687-.047-.235-.223-.41-.434-.41-.234 0-.398.164-.469.398-.656 3.563-.984 4.195-4.664 4.7-.246.034-.41.21-.41.433 0 .234.164.41.41.445 3.692.375 4.16 1.16 4.664 4.7.047.234.211.398.469.398Zm-4.77 1.969a.353.353 0 0 0 .352-.27c.316-1.77.2-1.84 2.121-2.133.164-.035.293-.164.293-.328a.33.33 0 0 0-.293-.328c-1.91-.328-1.804-.41-2.12-2.121-.048-.176-.165-.305-.352-.305-.165 0-.282.117-.34.305-.34 1.71-.188 1.793-2.11 2.121a.32.32 0 0 0-.293.328c0 .188.117.293.317.328 1.898.293 1.746.364 2.086 2.098.058.187.164.305.34.305Z" style="mix-blend-mode:overlay"/><defs><linearGradient id="c" x1="50.7" x2="79.296" y1="48.609" y2="89.111" gradientUnits="userSpaceOnUse"><stop stop-color="#fff"/><stop offset="1" stop-color="#fff" stop-opacity=".5"/></linearGradient><linearGradient id="d" x1="59" x2="59" y1="47" y2="76" gradientUnits="userSpaceOnUse"><stop stop-color="#fff" stop-opacity=".8"/><stop offset="1" stop-color="#fff" stop-opacity=".3"/></linearGradient><radialGradient id="b" cx="0" cy="0" r="1" gradientTransform="rotate(92.637 13.755 61.255) scale(162.172 72.7296)" gradientUnits="userSpaceOnUse"><stop stop-color="#602EA6"/><stop offset="1" stop-color="#C977D6"/></radialGradient><filter id="a" width="115.426" height="120.906" x=".787" y=".547" color-interpolation-filters="sRGB" filterUnits="userSpaceOnUse"><feFlood flood-opacity="0" result="BackgroundImageFix"/><feGaussianBlur in="BackgroundImageFix" stdDeviation="2"/><feComposite in2="SourceAlpha" operator="in" result="effect1_backgroundBlur_1735_143"/><feColorMatrix in="SourceAlpha" result="hardAlpha" values="0 0 0 0 0 0 0 0 0 0 0 0 0 0 0 0 0 0 127 0"/><feOffset/><feGaussianBlur stdDeviation="15"/><feComposite in2="hardAlpha" operator="out"/><feColorMatrix values="0 0 0 0 0.462745 0 0 0 0 0.239216 0 0 0 0 0.690196 0 0 0 1 0"/><feBlend in2="effect1_backgroundBlur_1735_143" result="effect2_dropShadow_1735_143"/><feBlend in="SourceGraphic" in2="effect2_dropShadow_1735_143" result="shape"/></filter></defs></svg>
